!!!COM: Richard Strauss
!!!CNT: Deutscher
!!!TXO: Deutsche 
!!!OTL: "Ach Lieb, ich muss nun scheiden!"
!!!OPS: Opus 21
!!!ONM: No. 3
!!!LYR: Felix Dahn
!!!ENC: Brian Bice
!!!YOR: Lieder, Complete Edition, vol. 1
!!!ODT: 1888/
!!NB: Vocal melody and text only encoded.
**kern	**silbe
*clefG2	*
*k[b-e-a-d-]	*
*M3/4	*
=2	=2
4r	.
4r	.
{4cc	{Ach
=3	=3
4.cc	Lieb,
8b-	ich
8a-	muss
8g-	nun
=4	=4
2cc	schei-
4b-}	-den,}
=5	=5
{8a-	{gehn
16b-	u2-
16cc	-ber
4.a-	Berg
8g-	und
=6	=6
2f}	Tal,}
8r	.
{8cc	{die
=7	=7
4.cc	Er-
8b-	-len
8a-	und
8g	die
=8	=8
(4.cc	Wei-
8b-)	|
8a-}	-den,}
{8g	{die
=9	=9
8b-	wei-
8a-	-nen
4.g	all-
8dn	-zu-
=10	=10
2e-}	-mal.}
8r	.
{8cc	{Sie
=11	=11
8ee-	sahn
8dd-	so
4.cc	oft
8b-	uns
=12	=12
(4.ee-	wan-
8dd-)	|
8cc}	-dern}
{8b-	{zu-
=13	=13
4a-	-sam-
8a-	-men
8r	.
8r	.
8b-	an
=14	=14
8.a-	Ba-
16g	-ches
4b-}	Rand,}
8r	.
{8a-	{das
=15	=15
4.ff	Ei-
8ee-	-ne
8dd-	ohn'
8cc	den
=16	=16
(4ff	An-
4ee-)	|
4dd-}	-dern}
=17	=17
{8cc	{geht
16b-	u2-
16a-	-ber
4g	ih-
8f	-ren
8en	Ver-
=18	=18
2g}	-stand.}
4r	.
=19	=19
4r	.
4r	.
{4cc	{Die
=20	=20
4.cc	Er-
8b-	-len
8a-	und
8g	die
=21	=21
2cc	Wei-
4b-}	-den}
=22	=22
8r	.
{8an	{vor
4.ff	Schmerz
8een	in
=23	=23
8.ee-	Thra2-
16dd-	-nen
4b-}	stehn,}
4r	.
=24	=24
8r	.
{8ddn	{nun
8ddn	den-
8g	-ket,
8g	wie
8g	uns
=25	=25
(4gg	bei-
4a-)}	-den}
8r	.
{8bn	{erst
=26	=26
4r	.
4cc	muss
4r	.
=27	=27
8r	.
8cc	zu
4.dd-	Her-
8cc	-zen
=28	=28
4f}	gehn.}
4r	.
4r	.
*-	*-
